!!!OTL: REGINE GIENG IN GARTE
!!!ARE: Europa, Mitteleuropa, Schweiz, Kanton Schaffhausen, Schleitheim
!!!SCT: E2123
!!!YEM: Copyright 1995, estate of Helmut Schaffrath.
**kern
*ICvox
*Ivox
!! Mixed meters:  3/4; 2/4
*M3/4
*k[b-e-a-d-]
*A-:
{4a-
=1
4g
4b-
8g
8e-
=2
*M2/4
4a-
4cc}
=3
{4a-
=4
*M3/4
4g
4b-
8g
16e-
16g
=5
*M2/4
4a-
4r}
=6
{4a-
=7
8g
8f
8e-
8f
=8
4e-
4d-
=9
4c}
{4e-
=10
*M3/4
8f
8d-
4a-
4g
=11
2a-}
==
!!!AGN: geistlich, Heiligen - Lied, Legende
!!!ONB: ESAC (Essen Associative Code) Database: ERK3
!!!AMT: irregular
!!!AIN: vox
!!!EED: Helmut Schaffrath
!!!EEV: 1.0
*-
